src/assets/nft-action/sell.svg

<svg fill="none" height="18" viewBox="0 0 18 18" width="18" xmlns="http://www.w3.org/2000/svg" xmlns:xlink="http://www.w3.org/1999/xlink"><linearGradient id="a" gradientUnits="userSpaceOnUse" x1="0" x2="18" y1="0" y2="18"><stop offset="0" stop-color="#ff7575"/><stop offset="1" stop-color="#8b54ff"/></linearGradient><clipPath id="b"><path d="m0 0h18v18h-18z"/></clipPath><clipPath id="c"><path d="m3 3h12v12h-12z"/></clipPath><g clip-path="url(#b)"><circle cx="9" cy="9" fill="url(#a)" r="9"/><g clip-path="url(#c)" stroke="#181a20" stroke-linecap="round" stroke-linejoin="round"><path d="m6.9295 6h-1.417c-.26853 0-.52607.10667-.71595.29655s-.29655.44742-.29655.71595v1.417c0 .2685.1065.526.2965.716l3.058 3.058c.09402.094.20565.1686.3285.2195s.25452.0771.3875.0771.26465-.0262.3875-.0771.23448-.1255.3285-.2195l1.417-1.417c.094-.094.1686-.2056.2195-.3285.0509-.1228.0771-.2545.0771-.3875 0-.13298-.0262-.26465-.0771-.3875s-.1255-.23448-.2195-.3285l-3.0585-3.058c-.18978-.18975-.44713-.2964-.7155-.2965z"/><path d="m11.786 12.2039 1.417-1.417c.0941-.094.1687-.2057.2196-.3285.0508-.1229.077-.2545.077-.3875s-.0262-.26468-.077-.38753c-.0509-.12285-.1255-.23447-.2196-.3285l-3.55847-3.55799"/><path d="m6.00012 7.5h-.005"/></g></g></svg>

<svg width="18" height="18" viewBox="0 0 18 18" fill="none" xmlns="http://www.w3.org/2000/svg">
    <g clip-path="url(#clip0_19007_360152)">
        <circle cx="9" cy="9" r="9" fill="url(#paint0_linear_19007_360152)"/>
        <g clip-path="url(#clip1_19007_360152)">
            <path d="M6.9295 6H5.5125C5.24397 6 4.98643 6.10667 4.79655 6.29655C4.60667 6.48643 4.5 6.74397 4.5 7.0125V8.4295C4.5 8.698 4.6065 8.9555 4.7965 9.1455L7.8545 12.2035C7.94852 12.2975 8.06015 12.3721 8.183 12.423C8.30585 12.4739 8.43752 12.5001 8.5705 12.5001C8.70348 12.5001 8.83515 12.4739 8.958 12.423C9.08085 12.3721 9.19248 12.2975 9.2865 12.2035L10.7035 10.7865C10.7975 10.6925 10.8721 10.5809 10.923 10.458C10.9739 10.3352 11.0001 10.2035 11.0001 10.0705C11.0001 9.93752 10.9739 9.80585 10.923 9.683C10.8721 9.56015 10.7975 9.44852 10.7035 9.3545L7.645 6.2965C7.45522 6.10675 7.19787 6.0001 6.9295 6V6Z" stroke="#181A20" stroke-linecap="round" stroke-linejoin="round"/>
            <path d="M11.786 12.2039L13.203 10.7869C13.2971 10.6929 13.3717 10.5812 13.4226 10.4584C13.4734 10.3355 13.4996 10.2039 13.4996 10.0709C13.4996 9.9379 13.4734 9.80622 13.4226 9.68337C13.3717 9.56052 13.2971 9.4489 13.203 9.35487L9.64453 5.79688" stroke="#181A20" stroke-linecap="round" stroke-linejoin="round"/>
            <path d="M6.00012 7.5H5.99512" stroke="#181A20" stroke-linecap="round" stroke-linejoin="round"/>
        </g>
    </g>
    <defs>
        <linearGradient id="paint0_linear_19007_360152" x1="0" y1="0" x2="18" y2="18" gradientUnits="userSpaceOnUse">
            <stop stop-color="#FF7575"/>
            <stop offset="1" stop-color="#8B54FF"/>
        </linearGradient>
        <clipPath id="clip0_19007_360152">
            <rect width="18" height="18" fill="white"/>
        </clipPath>
        <clipPath id="clip1_19007_360152">
            <rect width="12" height="12" fill="white" transform="translate(3 3)"/>
        </clipPath>
    </defs>
</svg>
